X: 49
T: Sericote
O: Portugal
F: https://www.youtube.com/watch?v=avTq7L9NzXE
F: https://www.youtube.com/watch?v=jdZb7J1gyzQ
W:transcribed by Jutta Weber-Karn
W:http://www.folkloretanznoten.de/
W:converted to abc notation without the lyrics
M: 4/4
L: 1/8
K: F
Q: 1/4=120
%%MIDI program 21 % Harmonica
[FAc]8|[c8-e8-g8-]|[ceg]2 zc c2 c2|:
Q:1/4=180
"F"f3 A A2 A2|"C" c4 c2 d2| e3d cB AG|[1"F" F3 c c2 c2:|[2 "F"F6 c2|:
"F"f f2 e f2 g2|f3 e d2 c2|f2 e2 d2 c2|"C"G2 G4 c2|
g g2 ^f g2 a2|g2 f2 e2 d2|c2 d2 c2 B2|[1"F"A2 A4 c2:|[2 "F"A2 A4 c2|
"^Refrain""F"f2 f4 g2|f2 e4 d2|c4 B2A2|"C"G6 c2|g4 g2a2|g2 f4 e2|
d4 c2 B2|"F"A6 c2|f3 e f2 g2|f3 e d2 c2|f3 e d2 c2|
"C"G6 c2|g3 ^f g2 a2|g2 f2 e2 d2|c3 d c2 B2|"F"A4 c c2 c2|:
f3 A A2 A2|"C"c4 c2 d2|e3 d cB AG|[1 "F"F3c c2 c2:|[2 A4 z4|



